X:2
T:The Idle Road
N:"Collected by Cronin"
B:O'Neill's 839
R:Jig
Z:Transcribed by Dan G. Petersen, dangp@post6.tele.dk
M:6/8
L:1/8
K:G
|DBB Dcc|DBB c2e|dBG FGA|BAG AFD|
DBB Dcc|DBB c2e|dBG FGA|BGG G3:|
|Ggg efg|fed cAF|Ggg gfg|afd cAF|
DBB Dcc|DBB c2e|dBG FGA|BGG G3:|
